X:1
T:Title
%%score { ( 1 3 ) | ( 2 4 ) }
L:1/8
M:4/4
K:Eb
V:1 treble nm="Grand Piano"
V:3 treble 
V:2 bass 
V:4 bass 
V:1
 z4 z2[Q:1/4=100] [GB]>[FA] | G>G G>G G2 (3EGc | B6 z2 | [DF]>[DF] [DF]>[DF] [DF]2 (3[Ac][GB][FA] | %4
[M:3/4] G6 |[M:1/4] G>[FA] |[M:4/4] [GB]>[GB] [GB]>[GB] [GB]2 B>B | c>c c>c c2 e>c | %8
 B>B B>B [DB]2 (3[DB][DA][DF] |[M:3/4] E6 |[M:1/4] (3EGB |[M:4/4] e6 z2 | c6 z2 | %13
 d>d d>c F2 (3=ABc |[M:3/4] B6 |[M:1/4] G>[FA] |[M:4/4] [GB]>[GB] [GB]>[GB] [GB]2 B>B | %17
 c>c c>c c2 e>c | B>B B>B [DB]2 (3[DB][DA][DF] |[M:7/4] E6 z2 z2 z4 |] %20
V:2
 z4 z2 [E,B,]>[E,B,] | [E,B,E]>[E,B,E] [E,B,E]>[E,B,E] [E,B,E]2 (3[E,G,][E,B,E][E,A,E] | %2
 [E,G,E]2 (3[E,G,][E,G,][E,G,] [E,B,]2 [E,B,]>[E,B,] | %3
 [B,,B,]>[B,,B,] [B,,B,]>[B,,B,] [B,,B,]2 (3[B,,B,][B,,B,][B,,B,] | %4
[M:3/4] [E,B,E]2 (3[E,B,][E,B,][E,B,] [E,B,]2 |[M:1/4] [E,B,E]>[E,B,] | %6
[M:4/4] [E,E]>[E,E] [E,E]>[E,E] [E,E]2 [E,G,E]>[E,G,E] | %7
 [A,E]>[A,E] [A,E]>[A,E] [A,E]2 [A,CE]>[A,E] | %8
 [E,G,E]>[E,G,E] [E,G,E]>[E,G,E] [B,,F,]2 (3[B,,F,][B,,F,][B,,A,] |[M:3/4] G,2 (3A,A,A, G,2 | %10
[M:1/4] z2 |[M:4/4] z2 (3[E,B,][E,B,][E,B,] [E,B,]2 z2 | z2 (3A,A,A, A,2 (3[A,E][A,B,E][A,CE] | %13
 [F,B,F]>[F,B,F] [F,B,F]>[F,=A,E] [F,A,E]2 (3[F,CE][F,B,E][F,A,E] | %14
[M:3/4] [B,,B,]2 (3[B,,B,][D,B,][F,B,] B,2 |[M:1/4] [E,B,E]>[E,B,] | %16
[M:4/4] [E,E]>[E,E] [E,E]>[E,E] [E,E]2 [E,G,E]>[E,G,E] | %17
 [A,E]>[A,E] [A,E]>[A,E] [A,E]2 [A,CE]>[A,E] | %18
 [E,G,E]>[E,G,E] [E,G,E]>[E,G,E] [B,,F,]2 (3[B,,F,][B,,F,][B,,A,] | %19
[M:7/4] G,2 (3A,A,A, G,2 z2 z2 z4 |] %20
V:3
 x8 | x8 | z2 (3EEE G2 [FA]>[EG] | x8 |[M:3/4] z2 (3EEE E2 |[M:1/4] x2 |[M:4/4] x8 | x8 | x8 | %9
[M:3/4] z2 (3CCC B,2 |[M:1/4] x2 |[M:4/4] z2 (3GGG G2 (3GFE | z2 (3EEE E2 (3cde | x8 | %14
[M:3/4] D2 (3DFE D2 |[M:1/4] x2 |[M:4/4] x8 | x8 | x8 |[M:7/4] z2 (3CCC B,2 z2 z2 z4 |] %20
V:4
 x8 | x8 | x8 | x8 |[M:3/4] x6 |[M:1/4] x2 |[M:4/4] x8 | x8 | x8 |[M:3/4] E,6 |[M:1/4] x2 | %11
[M:4/4] x8 | x8 | x8 |[M:3/4] x6 |[M:1/4] x2 |[M:4/4] x8 | x8 | x8 |[M:7/4] E,6 z2 z2 z4 |] %20

